public/assets/footer/instagram-light.svg

<svg fill="none" height="36" viewBox="0 0 37 36" width="37" xmlns="http://www.w3.org/2000/svg"><g stroke="#1e1e1e" stroke-width="1.286"><path d="m19.3142 23.1429c1.364 0 2.6721-.5418 3.6366-1.5063s1.5063-2.2726 1.5063-3.6366c0-1.3639-.5418-2.672-1.5063-3.6365s-2.2726-1.5063-3.6366-1.5063c-1.3639 0-2.672.5418-3.6365 1.5063s-1.5063 2.2726-1.5063 3.6365c0 1.364.5418 2.6721 1.5063 3.6366s2.2726 1.5063 3.6365 1.5063z" stroke-linecap="round" stroke-linejoin="round"/><path d="m7.74316 23.1429v-10.2857c0-1.705.6773-3.34013 1.88289-4.54573 1.20555-1.20559 2.84075-1.88288 4.54565-1.88288h10.2857c1.705 0 3.3401.67729 4.5457 1.88288 1.2056 1.2056 1.8829 2.84073 1.8829 4.54573v10.2857c0 1.7049-.6773 3.3401-1.8829 4.5457s-2.8407 1.8829-4.5457 1.8829h-10.2857c-1.7049 0-3.3401-.6773-4.54565-1.8829-1.20559-1.2056-1.88289-2.8408-1.88289-4.5457z"/><path d="m26.3857 10.942.0134-.0147" stroke-linecap="round" stroke-linejoin="round"/></g></svg>

<svg xmlns="http://www.w3.org/2000/svg" width="37" height="36" fill="none" viewBox="0 0 37 36"><path stroke="#1E1E1E" stroke-linecap="round" stroke-linejoin="round" stroke-width="1.286" d="M19.3142 23.1429C20.6782 23.1429 21.9863 22.6011 22.9508 21.6366C23.9153 20.6721 24.4571 19.364 24.4571 18C24.4571 16.6361 23.9153 15.328 22.9508 14.3635C21.9863 13.399 20.6782 12.8572 19.3142 12.8572C17.9503 12.8572 16.6422 13.399 15.6777 14.3635C14.7132 15.328 14.1714 16.6361 14.1714 18C14.1714 19.364 14.7132 20.6721 15.6777 21.6366C16.6422 22.6011 17.9503 23.1429 19.3142 23.1429Z"/><path stroke="#1E1E1E" stroke-width="1.286" d="M7.74316 23.1429V12.8572C7.74316 11.1522 8.42046 9.51707 9.62605 8.31147C10.8316 7.10588 12.4668 6.42859 14.1717 6.42859H24.4574C26.1624 6.42859 27.7975 7.10588 29.0031 8.31147C30.2087 9.51707 30.886 11.1522 30.886 12.8572V23.1429C30.886 24.8478 30.2087 26.483 29.0031 27.6886C27.7975 28.8942 26.1624 29.5715 24.4574 29.5715H14.1717C12.4668 29.5715 10.8316 28.8942 9.62605 27.6886C8.42046 26.483 7.74316 24.8478 7.74316 23.1429Z"/><path stroke="#1E1E1E" stroke-linecap="round" stroke-linejoin="round" stroke-width="1.286" d="M26.3857 10.942L26.3991 10.9273"/></svg>
